X:1
T:Title
%%score { 1 | 2 }
L:1/8
Q:1/4=100
M:6/8
K:Ab
V:1 treble nm="Grand Piano"
V:2 bass 
V:1
 [CE]2 [DF] [CE][A,C][B,D] | [CE]2 [CA] [CA]3 | [EB]>[EB][EB] [EA]2 [EB] | [Ec]6 | %4
w: William~J.~Kirkpatrick * * * *||||
 [Ec]2 [Ec] [FB][FA][DF] | [CE]2 [_CF] [=CE]3 | A>AA A2 G | [CA]6 | B>BB .B3 | c>cc .c3 | %10
w: ||||||
 d>cB c>B[EA] | [EB]6 | [Ec]2 [DB] [CA]2 [CE]/[CE]/ | [E_G]2 [EG] F3 | E<EA c>cB | [CA]6 |] %16
w: ||||||
V:2
 [A,,A,]2 [A,,A,] [A,,A,][A,,E,][A,,E,] | [A,,A,]2 [A,,E,] [A,,E,]3 | %2
 [E,G,]>[E,G,][D,G,] [C,A,]2 [B,,G,] | [A,,A,]6 | [C,G,]2 [C,G,] [D,F,][D,F,][D,A,] | %5
 [A,,A,]2 [A,,A,] [A,,A,]3 | [F,A,C]>[F,B,D][=E,_C=D] [_E,=CE]2 [E,B,_D] | [A,,A,]6 | %8
 [E,G,E]>[E,G,E][E,G,E] .[E,G,E]3 | [A,E]>[A,E][A,E] .[A,E]3 | %10
 [G,B,E]>[G,B,E][G,B,E] [A,E]>[E,A,E][C,A,] | [E,G,]6 | %12
 [A,,A,]2 [A,,E,] [A,,E,]2 [A,,A,]/[A,,A,]/ | [C,A,]2 [C,A,] [D,A,D]3 | %14
 [E,A,C]<[E,A,C][E,A,C] [E,A,E]>[E,A,E][E,G,D] | [A,,E,A,]6 |] %16

